( Made using CamBam - http://www.cambam.co.uk )
( base1 5/18/2013 4:08:28 AM )
( T0 : 0.0 )
G21 G90 G64 G40
G0 Z3.0
( T0 : 0.0 )
T0 M6
( Engrave1 )
G17
M3 S1000
G0 X24.2617 Y18.4055
G1 F300.0 Z-0.4
G1 F800.0 X20.7064 Y14.8501
G1 X20.9519 Y14.6508
G1 X21.1986 Y14.453
G1 X21.4466 Y14.2568
G1 X21.6958 Y14.0621
G1 X21.9462 Y13.869
G1 X22.1979 Y13.6775
G1 X22.4508 Y13.4876
G1 X22.7048 Y13.2993
G1 X22.9601 Y13.1127
G1 X23.2165 Y12.9276
G1 X23.4741 Y12.7442
G1 X23.7328 Y12.5624
G1 X23.9927 Y12.3822
G1 X24.2537 Y12.2037
G1 X24.5159 Y12.0268
G1 X24.7791 Y11.8516
G1 X25.0435 Y11.6781
G1 X25.3089 Y11.5062
G1 X25.5755 Y11.3361
G1 X25.8431 Y11.1676
G1 X26.1117 Y11.0008
G1 X26.3815 Y10.8357
G1 X26.6522 Y10.6723
G1 X26.924 Y10.5107
G1 X27.1968 Y10.3507
G1 X27.4706 Y10.1925
G1 X27.7454 Y10.036
G1 X28.0212 Y9.8813
G1 X28.2979 Y9.7283
G1 X28.5757 Y9.5771
G1 X28.8543 Y9.4276
G1 X29.1339 Y9.2799
G1 X29.4145 Y9.134
G1 X29.6959 Y8.9898
G1 X29.9783 Y8.8474
G1 X30.2616 Y8.7068
G1 X30.5457 Y8.568
G1 X30.8307 Y8.431
G1 X31.1166 Y8.2958
G1 X31.4033 Y8.1625
G1 X31.6909 Y8.0309
G1 X31.9793 Y7.9012
G1 X32.2685 Y7.7732
G1 X32.5585 Y7.6472
G1 X32.8493 Y7.5229
G1 X33.1408 Y7.4005
G1 X33.4332 Y7.2799
G1 X33.7263 Y7.1612
G1 X34.0201 Y7.0444
G1 X34.3147 Y6.9294
G1 X34.61 Y6.8163
G1 X34.906 Y6.705
G1 X35.2027 Y6.5956
G1 X35.5001 Y6.4881
G1 X35.7982 Y6.3825
G1 X36.0969 Y6.2788
G1 X36.3963 Y6.1769
G1 X36.6963 Y6.077
G1 X36.997 Y5.9789
G1 X37.2982 Y5.8828
G1 X37.6001 Y5.7886
G1 X37.9025 Y5.6962
G1 X38.2056 Y5.6058
G1 X38.5092 Y5.5173
G1 X38.8133 Y5.4308
G1 X39.118 Y5.3461
G1 X39.4232 Y5.2634
G1 X39.7289 Y5.1826
G1 X40.0352 Y5.1038
G1 X40.3419 Y5.0269
G1 X40.6491 Y4.9519
G1 X40.9568 Y4.8789
G1 X41.2649 Y4.8078
G1 X41.5735 Y4.7387
G1 X41.8825 Y4.6715
G1 X42.192 Y4.6063
G1 X42.5018 Y4.543
G1 X42.812 Y4.4817
G1 X43.1226 Y4.4224
G1 X43.4336 Y4.365
G1 X43.745 Y4.3096
G1 X44.0566 Y4.2562
G1 X44.3687 Y4.2047
G1 X44.681 Y4.1553
G1 X44.9936 Y4.1077
G1 X45.3066 Y4.0622
G1 X45.6198 Y4.0187
G1 X45.9333 Y3.9771
G1 X46.247 Y3.9375
G1 X46.561 Y3.8999
G1 X46.8752 Y3.8643
G1 X47.1896 Y3.8307
G1 X47.5043 Y3.799
G1 X47.8191 Y3.7694
G1 X48.1341 Y3.7417
G1 X48.4493 Y3.7161
G1 X48.7647 Y3.6924
G1 X49.0801 Y3.6707
G1 X49.3958 Y3.6511
G1 X49.7115 Y3.6334
G1 X50.0273 Y3.6177
G1 X50.3433 Y3.604
G1 X50.6593 Y3.5923
G1 X50.9753 Y3.5826
G1 X51.2915 Y3.575
G1 X51.6077 Y3.5693
G1 X51.9239 Y3.5656
G1 X52.2401 Y3.5639
G1 X52.349 Y3.5638
G1 Y8.5638
G1 X52.649 Y8.5648
G1 X52.949 Y8.5678
G1 X53.2489 Y8.5728
G1 X53.5488 Y8.5798
G1 X53.8487 Y8.5888
G1 X54.1485 Y8.5998
G1 X54.4482 Y8.6128
G1 X54.7478 Y8.6278
G1 X55.0474 Y8.6448
G1 X55.3468 Y8.6637
G1 X55.646 Y8.6847
G1 X55.9451 Y8.7077
G1 X56.2441 Y8.7327
G1 X56.5429 Y8.7596
G1 X56.8415 Y8.7886
G1 X57.1399 Y8.8195
G1 X57.349 Y8.8424
G1 Y3.8144
G1 X57.6635 Y3.847
G1 X57.9778 Y3.8816
G1 X58.2919 Y3.9182
G1 X58.6058 Y3.9568
G1 X58.9194 Y3.9974
G1 X59.2328 Y4.0399
G1 X59.5459 Y4.0844
G1 X59.8586 Y4.1309
G1 X60.1711 Y4.1794
G1 X60.4833 Y4.2299
G1 X60.7952 Y4.2823
G1 X61.1067 Y4.3367
G1 X61.4178 Y4.3931
G1 X61.7286 Y4.4514
G1 X62.0391 Y4.5117
G1 X62.3491 Y4.574
G1 X62.6587 Y4.6382
G1 X62.968 Y4.7044
G1 X63.2768 Y4.7726
G1 X63.5851 Y4.8426
G1 X63.893 Y4.9147
G1 X64.2005 Y4.9887
G1 X64.5075 Y5.0646
G1 X64.814 Y5.1425
G1 X65.1199 Y5.2223
G1 X65.4254 Y5.304
G1 X65.7304 Y5.3877
G1 X66.0348 Y5.4733
G1 X66.3387 Y5.5608
G1 X66.642 Y5.6502
G1 X66.9447 Y5.7416
G1 X67.2469 Y5.8348
G1 X67.5485 Y5.93
G1 X67.8494 Y6.0271
G1 X68.1498 Y6.1261
G1 X68.4495 Y6.227
G1 X68.7485 Y6.3297
G1 X69.0469 Y6.4344
G1 X69.3447 Y6.541
G1 X69.6417 Y6.6494
G1 X69.9381 Y6.7597
G1 X70.2338 Y6.8719
G1 X70.5287 Y6.9859
G1 X70.8229 Y7.1018
G1 X71.1164 Y7.2196
G1 X71.4091 Y7.3392
G1 X71.7011 Y7.4607
G1 X71.9923 Y7.584
G1 X72.2827 Y7.7092
G1 X72.5723 Y7.8361
G1 X72.8611 Y7.965
G1 X73.1491 Y8.0956
G1 X73.4362 Y8.2281
G1 X73.7225 Y8.3623
G1 X74.008 Y8.4984
G1 X74.2926 Y8.6363
G1 X74.5763 Y8.776
G1 X74.8591 Y8.9175
G1 X75.141 Y9.0607
G1 X75.422 Y9.2058
G1 X75.7021 Y9.3526
G1 X75.9813 Y9.5011
G1 X76.2595 Y9.6515
G1 X76.5367 Y9.8036
G1 X76.813 Y9.9574
G1 X77.0883 Y10.113
G1 X77.3626 Y10.2704
G1 X77.6359 Y10.4294
G1 X77.9082 Y10.5902
G1 X78.1795 Y10.7527
G1 X78.4497 Y10.917
G1 X78.7189 Y11.0829
G1 X78.9871 Y11.2505
G1 X79.2541 Y11.4198
G1 X79.5201 Y11.5908
G1 X79.7851 Y11.7635
G1 X80.0489 Y11.9379
G1 X80.3116 Y12.1139
G1 X80.5732 Y12.2916
G1 X80.8336 Y12.4709
G1 X81.093 Y12.6519
G1 X81.3511 Y12.8345
G1 X81.6081 Y13.0187
G1 X81.864 Y13.2046
G1 X82.1187 Y13.3921
G1 X82.3721 Y13.5812
G1 X82.6244 Y13.7718
G1 X82.8755 Y13.9641
G1 X83.1253 Y14.158
G1 X83.3739 Y14.3534
G1 X83.6213 Y14.5504
G1 X83.8674 Y14.749
G1 X84.1122 Y14.9491
G1 X84.3558 Y15.1507
G1 X84.5981 Y15.3539
G1 X84.8391 Y15.5587
G1 X85.0789 Y15.7649
G1 X85.3173 Y15.9727
G1 X85.5543 Y16.1819
G1 X85.7901 Y16.3927
G1 X86.0245 Y16.6049
G1 X86.2576 Y16.8186
G1 X86.4893 Y17.0338
G1 X86.7197 Y17.2505
G1 X86.9486 Y17.4686
G1 X87.1762 Y17.6881
G1 X87.4024 Y17.9091
G1 X87.6272 Y18.1315
G1 X87.7043 Y18.2084
G1 X84.1688 Y21.744
G1 X84.3802 Y21.9568
G1 X84.5902 Y22.1711
G1 X84.7988 Y22.3867
G1 X85.0059 Y22.6037
G1 X85.2116 Y22.8221
G1 X85.4158 Y23.0419
G1 X85.6185 Y23.263
G1 X85.8198 Y23.4855
G1 X86.0196 Y23.7093
G1 X86.2178 Y23.9344
G1 X86.4146 Y24.1609
G1 X86.6099 Y24.3886
G1 X86.8036 Y24.6177
G1 X86.9958 Y24.848
G1 X87.1865 Y25.0796
G1 X87.3756 Y25.3125
G1 X87.5073 Y25.4765
G1 X91.0626 Y21.9212
G1 X91.262 Y22.1667
G1 X91.4598 Y22.4134
G1 X91.656 Y22.6614
G1 X91.8507 Y22.9106
G1 X92.0437 Y23.161
G1 X92.2352 Y23.4127
G1 X92.4251 Y23.6656
G1 X92.6134 Y23.9196
G1 X92.8001 Y24.1749
G1 X92.9851 Y24.4313
G1 X93.1686 Y24.6889
G1 X93.3504 Y24.9476
G1 X93.5305 Y25.2075
G1 X93.7091 Y25.4685
G1 X93.8859 Y25.7307
G1 X94.0611 Y25.9939
G1 X94.2347 Y26.2583
G1 X94.4065 Y26.5238
G1 X94.5767 Y26.7903
G1 X94.7452 Y27.0579
G1 X94.912 Y27.3266
G1 X95.077 Y27.5963
G1 X95.2404 Y27.867
G1 X95.4021 Y28.1388
G1 X95.562 Y28.4116
G1 X95.7202 Y28.6854
G1 X95.8767 Y28.9602
G1 X96.0314 Y29.236
G1 X96.1844 Y29.5128
G1 X96.3357 Y29.7905
G1 X96.4851 Y30.0691
G1 X96.6329 Y30.3488
G1 X96.7788 Y30.6293
G1 X96.923 Y30.9107
G1 X97.0653 Y31.1931
G1 X97.2059 Y31.4764
G1 X97.3447 Y31.7605
G1 X97.4817 Y32.0455
G1 X97.6169 Y32.3314
G1 X97.7503 Y32.6181
G1 X97.8818 Y32.9057
G1 X98.0116 Y33.1941
G1 X98.1395 Y33.4833
G1 X98.2656 Y33.7733
G1 X98.3898 Y34.0641
G1 X98.5122 Y34.3556
G1 X98.6328 Y34.648
G1 X98.7515 Y34.9411
G1 X98.8684 Y35.2349
G1 X98.9833 Y35.5295
G1 X99.0965 Y35.8248
G1 X99.2077 Y36.1208
G1 X99.3171 Y36.4175
G1 X99.4246 Y36.7149
G1 X99.5302 Y37.013
G1 X99.634 Y37.3117
G1 X99.7358 Y37.6111
G1 X99.8358 Y37.9111
G1 X99.9338 Y38.2118
G1 X100.0299 Y38.513
G1 X100.1242 Y38.8149
G1 X100.2165 Y39.1173
G1 X100.3069 Y39.4204
G1 X100.3954 Y39.724
G1 X100.482 Y40.0281
G1 X100.5666 Y40.3328
G1 X100.6493 Y40.638
G1 X100.7301 Y40.9438
G1 X100.809 Y41.25
G1 X100.8859 Y41.5567
G1 X100.9608 Y41.8639
G1 X101.0339 Y42.1716
G1 X101.1049 Y42.4798
G1 X101.1741 Y42.7883
G1 X101.2412 Y43.0973
G1 X101.3065 Y43.4068
G1 X101.3697 Y43.7166
G1 X101.431 Y44.0268
G1 X101.4903 Y44.3375
G1 X101.5477 Y44.6484
G1 X101.6031 Y44.9598
G1 X101.6565 Y45.2715
G1 X101.708 Y45.5835
G1 X101.7575 Y45.8958
G1 X101.805 Y46.2084
G1 X101.8505 Y46.5214
G1 X101.8941 Y46.8346
G1 X101.9356 Y47.1481
G1 X101.9752 Y47.4618
G1 X102.0128 Y47.7758
G1 X102.0484 Y48.09
G1 X102.0821 Y48.4044
G1 X102.1137 Y48.7191
G1 X102.1434 Y49.0339
G1 X102.171 Y49.3489
G1 X102.1967 Y49.6641
G1 X102.2203 Y49.9795
G1 X102.242 Y50.2949
G1 X102.2617 Y50.6106
G1 X102.2794 Y50.9263
G1 X102.295 Y51.2421
G1 X102.3087 Y51.5581
G1 X102.3204 Y51.8741
G1 X102.3301 Y52.1902
G1 X102.3378 Y52.5063
G1 X102.3435 Y52.8225
G1 X102.3472 Y53.1387
G1 X102.3489 Y53.4549
G1 X102.349 Y53.5638
G1 X97.349
G1 X97.348 Y53.8638
G1 X97.345 Y54.1638
G1 X97.34 Y54.4637
G1 X97.333 Y54.7636
G1 X97.324 Y55.0635
G1 X97.313 Y55.3633
G1 X97.3 Y55.663
G1 X97.285 Y55.9626
G1 X97.268 Y56.2622
G1 X97.249 Y56.5616
G1 X97.228 Y56.8608
G1 X97.205 Y57.1599
G1 X97.1801 Y57.4589
G1 X97.1531 Y57.7577
G1 X97.1242 Y58.0563
G1 X97.0932 Y58.3547
G1 X97.0703 Y58.5638
G1 X102.0983
G1 X102.0657 Y58.8783
G1 X102.0311 Y59.1926
G1 X101.9945 Y59.5068
G1 X101.9559 Y59.8206
G1 X101.9154 Y60.1342
G1 X101.8728 Y60.4476
G1 X101.8283 Y60.7607
G1 X101.7818 Y61.0735
G1 X101.7333 Y61.3859
G1 X101.6829 Y61.6981
G1 X101.6304 Y62.01
G1 X101.576 Y62.3215
G1 X101.5196 Y62.6326
G1 X101.4613 Y62.9434
G1 X101.401 Y63.2539
G1 X101.3387 Y63.5639
G1 X101.2745 Y63.8735
G1 X101.2083 Y64.1828
G1 X101.1402 Y64.4916
G1 X101.0701 Y64.7999
G1 X100.9981 Y65.1078
G1 X100.9241 Y65.4153
G1 X100.8482 Y65.7223
G1 X100.7703 Y66.0288
G1 X100.6905 Y66.3348
G1 X100.6087 Y66.6402
G1 X100.5251 Y66.9452
G1 X100.4395 Y67.2496
G1 X100.352 Y67.5535
G1 X100.2625 Y67.8568
G1 X100.1712 Y68.1596
G1 X100.0779 Y68.4617
G1 X99.9827 Y68.7633
G1 X99.8856 Y69.0642
G1 X99.7867 Y69.3646
G1 X99.6858 Y69.6643
G1 X99.583 Y69.9633
G1 X99.4783 Y70.2617
G1 X99.3718 Y70.5595
G1 X99.2634 Y70.8565
G1 X99.1531 Y71.1529
G1 X99.0409 Y71.4486
G1 X98.9268 Y71.7435
G1 X98.8109 Y72.0377
G1 X98.6932 Y72.3312
G1 X98.5735 Y72.6239
G1 X98.4521 Y72.9159
G1 X98.3287 Y73.2071
G1 X98.2036 Y73.4975
G1 X98.0766 Y73.7871
G1 X97.9478 Y74.0759
G1 X97.8171 Y74.3639
G1 X97.6847 Y74.651
G1 X97.5504 Y74.9374
G1 X97.4143 Y75.2228
G1 X97.2764 Y75.5074
G1 X97.1368 Y75.7911
G1 X96.9953 Y76.0739
G1 X96.852 Y76.3558
G1 X96.707 Y76.6368
G1 X96.5602 Y76.9169
G1 X96.4116 Y77.1961
G1 X96.2613 Y77.4743
G1 X96.1092 Y77.7515
G1 X95.9553 Y78.0278
G1 X95.7997 Y78.3031
G1 X95.6424 Y78.5774
G1 X95.4833 Y78.8507
G1 X95.3225 Y79.123
G1 X95.16 Y79.3943
G1 X94.9958 Y79.6645
G1 X94.8299 Y79.9337
G1 X94.6622 Y80.2019
G1 X94.4929 Y80.4689
G1 X94.3219 Y80.7349
G1 X94.1492 Y80.9999
G1 X93.9749 Y81.2637
G1 X93.7988 Y81.5264
G1 X93.6212 Y81.788
G1 X93.4418 Y82.0484
G1 X93.2609 Y82.3078
G1 X93.0783 Y82.5659
G1 X92.894 Y82.823
G1 X92.7082 Y83.0788
G1 X92.5207 Y83.3335
G1 X92.3316 Y83.5869
G1 X92.1409 Y83.8392
G1 X91.9486 Y84.0903
G1 X91.7548 Y84.3401
G1 X91.5593 Y84.5887
G1 X91.3623 Y84.8361
G1 X91.1638 Y85.0822
G1 X90.9637 Y85.327
G1 X90.762 Y85.5706
G1 X90.5588 Y85.8129
G1 X90.3541 Y86.0539
G1 X90.1478 Y86.2937
G1 X89.9401 Y86.5321
G1 X89.7308 Y86.7692
G1 X89.5201 Y87.0049
G1 X89.3078 Y87.2393
G1 X89.0941 Y87.4724
G1 X88.8789 Y87.7041
G1 X88.6623 Y87.9345
G1 X88.4442 Y88.1635
G1 X88.2246 Y88.391
G1 X88.0036 Y88.6172
G1 X87.7812 Y88.842
G1 X87.7043 Y88.9191
G1 X84.1688 Y85.3836
G1 X83.9559 Y85.595
G1 X83.7417 Y85.805
G1 X83.5261 Y86.0136
G1 X83.309 Y86.2207
G1 X83.0906 Y86.4264
G1 X82.8709 Y86.6306
G1 X82.6497 Y86.8333
G1 X82.4273 Y87.0346
G1 X82.2035 Y87.2344
G1 X81.9783 Y87.4327
G1 X81.7519 Y87.6294
G1 X81.5241 Y87.8247
G1 X81.2951 Y88.0184
G1 X81.0647 Y88.2106
G1 X80.8331 Y88.4013
G1 X80.6002 Y88.5904
G1 X80.4362 Y88.7221
G1 X83.9916 Y92.2774
G1 X83.7461 Y92.4768
G1 X83.4993 Y92.6746
G1 X83.2514 Y92.8708
G1 X83.0021 Y93.0655
G1 X82.7517 Y93.2585
G1 X82.5 Y93.45
G1 X82.2472 Y93.6399
G1 X81.9931 Y93.8282
G1 X81.7379 Y94.0149
G1 X81.4815 Y94.2
G1 X81.2239 Y94.3834
G1 X80.9651 Y94.5652
G1 X80.7052 Y94.7454
G1 X80.4442 Y94.9239
G1 X80.1821 Y95.1007
G1 X79.9188 Y95.2759
G1 X79.6544 Y95.4495
G1 X79.389 Y95.6213
G1 X79.1225 Y95.7915
G1 X78.8549 Y95.96
G1 X78.5862 Y96.1268
G1 X78.3165 Y96.2919
G1 X78.0457 Y96.4552
G1 X77.7739 Y96.6169
G1 X77.5011 Y96.7768
G1 X77.2273 Y96.935
G1 X76.9525 Y97.0915
G1 X76.6768 Y97.2463
G1 X76.4 Y97.3992
G1 X76.1223 Y97.5505
G1 X75.8436 Y97.7
G1 X75.564 Y97.8477
G1 X75.2835 Y97.9936
G1 X75.002 Y98.1378
G1 X74.7196 Y98.2801
G1 X74.4364 Y98.4207
G1 X74.1522 Y98.5595
G1 X73.8672 Y98.6965
G1 X73.5814 Y98.8317
G1 X73.2946 Y98.9651
G1 X73.0071 Y99.0967
G1 X72.7187 Y99.2264
G1 X72.4295 Y99.3543
G1 X72.1395 Y99.4804
G1 X71.8487 Y99.6046
G1 X71.5571 Y99.727
G1 X71.2648 Y99.8476
G1 X70.9717 Y99.9663
G1 X70.6778 Y100.0832
G1 X70.3832 Y100.1982
G1 X70.0879 Y100.3113
G1 X69.7919 Y100.4225
G1 X69.4952 Y100.5319
G1 X69.1978 Y100.6394
G1 X68.8997 Y100.745
G1 X68.601 Y100.8488
G1 X68.3016 Y100.9506
G1 X68.0016 Y101.0506
G1 X67.701 Y101.1486
G1 X67.3997 Y101.2447
G1 X67.0979 Y101.339
G1 X66.7954 Y101.4313
G1 X66.4924 Y101.5217
G1 X66.1888 Y101.6102
G1 X65.8846 Y101.6968
G1 X65.5799 Y101.7814
G1 X65.2747 Y101.8641
G1 X64.969 Y101.9449
G1 X64.6628 Y102.0238
G1 X64.356 Y102.1007
G1 X64.0488 Y102.1756
G1 X63.7411 Y102.2487
G1 X63.433 Y102.3197
G1 X63.1244 Y102.3889
G1 X62.8154 Y102.456
G1 X62.506 Y102.5213
G1 X62.1961 Y102.5845
G1 X61.8859 Y102.6458
G1 X61.5753 Y102.7052
G1 X61.2643 Y102.7625
G1 X60.953 Y102.8179
G1 X60.6413 Y102.8714
G1 X60.3293 Y102.9228
G1 X60.0169 Y102.9723
G1 X59.7043 Y103.0198
G1 X59.3914 Y103.0653
G1 X59.0782 Y103.1089
G1 X58.7647 Y103.1505
G1 X58.4509 Y103.19
G1 X58.137 Y103.2276
G1 X57.8227 Y103.2633
G1 X57.5083 Y103.2969
G1 X57.1937 Y103.3285
G1 X56.8788 Y103.3582
G1 X56.5638 Y103.3858
G1 X56.2486 Y103.4115
G1 X55.9333 Y103.4351
G1 X55.6178 Y103.4568
G1 X55.3022 Y103.4765
G1 X54.9865 Y103.4942
G1 X54.6706 Y103.5098
G1 X54.3547 Y103.5235
G1 X54.0387 Y103.5352
G1 X53.7226 Y103.5449
G1 X53.4065 Y103.5526
G1 X53.0903 Y103.5583
G1 X52.7741 Y103.562
G1 X52.4579 Y103.5637
G1 X52.349 Y103.5638
G1 Y98.5638
G1 X52.049 Y98.5628
G1 X51.749 Y98.5598
G1 X51.449 Y98.5548
G1 X51.1491 Y98.5478
G1 X50.8492 Y98.5388
G1 X50.5494 Y98.5278
G1 X50.2497 Y98.5148
G1 X49.9501 Y98.4998
G1 X49.6506 Y98.4828
G1 X49.3512 Y98.4638
G1 X49.0519 Y98.4428
G1 X48.7528 Y98.4199
G1 X48.4538 Y98.3949
G1 X48.1551 Y98.3679
G1 X47.8565 Y98.339
G1 X47.5581 Y98.308
G1 X47.349 Y98.2851
G1 Y103.3131
G1 X47.0344 Y103.2805
G1 X46.7201 Y103.2459
G1 X46.406 Y103.2093
G1 X46.0921 Y103.1708
G1 X45.7785 Y103.1302
G1 X45.4652 Y103.0876
G1 X45.1521 Y103.0431
G1 X44.8393 Y102.9966
G1 X44.5268 Y102.9481
G1 X44.2146 Y102.8977
G1 X43.9028 Y102.8452
G1 X43.5913 Y102.7908
G1 X43.2801 Y102.7345
G1 X42.9693 Y102.6761
G1 X42.6589 Y102.6158
G1 X42.3488 Y102.5535
G1 X42.0392 Y102.4893
G1 X41.73 Y102.4231
G1 X41.4212 Y102.355
G1 X41.1128 Y102.2849
G1 X40.8049 Y102.2129
G1 X40.4975 Y102.1389
G1 X40.1905 Y102.063
G1 X39.884 Y101.9851
G1 X39.578 Y101.9053
G1 X39.2725 Y101.8236
G1 X38.9676 Y101.7399
G1 X38.6631 Y101.6543
G1 X38.3593 Y101.5668
G1 X38.0559 Y101.4773
G1 X37.7532 Y101.386
G1 X37.451 Y101.2927
G1 X37.1495 Y101.1975
G1 X36.8485 Y101.1005
G1 X36.5482 Y101.0015
G1 X36.2485 Y100.9006
G1 X35.9494 Y100.7978
G1 X35.651 Y100.6932
G1 X35.3533 Y100.5866
G1 X35.0562 Y100.4782
G1 X34.7598 Y100.3679
G1 X34.4642 Y100.2557
G1 X34.1692 Y100.1416
G1 X33.875 Y100.0257
G1 X33.5815 Y99.908
G1 X33.2888 Y99.7883
G1 X32.9968 Y99.6669
G1 X32.7056 Y99.5436
G1 X32.4152 Y99.4184
G1 X32.1256 Y99.2914
G1 X31.8368 Y99.1626
G1 X31.5488 Y99.032
G1 X31.2617 Y98.8995
G1 X30.9754 Y98.7652
G1 X30.6899 Y98.6291
G1 X30.4054 Y98.4913
G1 X30.1217 Y98.3516
G1 X29.8388 Y98.2101
G1 X29.5569 Y98.0668
G1 X29.2759 Y97.9218
G1 X28.9958 Y97.775
G1 X28.7167 Y97.6264
G1 X28.4385 Y97.4761
G1 X28.1612 Y97.324
G1 X27.885 Y97.1701
G1 X27.6097 Y97.0145
G1 X27.3353 Y96.8572
G1 X27.062 Y96.6981
G1 X26.7897 Y96.5373
G1 X26.5185 Y96.3748
G1 X26.2482 Y96.2106
G1 X25.979 Y96.0447
G1 X25.7109 Y95.877
G1 X25.4438 Y95.7077
G1 X25.1778 Y95.5367
G1 X24.9129 Y95.364
G1 X24.6491 Y95.1897
G1 X24.3864 Y95.0137
G1 X24.1248 Y94.836
G1 X23.8643 Y94.6566
G1 X23.605 Y94.4757
G1 X23.3468 Y94.2931
G1 X23.0898 Y94.1088
G1 X22.8339 Y93.923
G1 X22.5793 Y93.7355
G1 X22.3258 Y93.5464
G1 X22.0735 Y93.3557
G1 X21.8225 Y93.1634
G1 X21.5726 Y92.9696
G1 X21.324 Y92.7742
G1 X21.0767 Y92.5772
G1 X20.8306 Y92.3786
G1 X20.5857 Y92.1785
G1 X20.3421 Y91.9768
G1 X20.0998 Y91.7736
G1 X19.8588 Y91.5689
G1 X19.6191 Y91.3626
G1 X19.3807 Y91.1549
G1 X19.1436 Y90.9456
G1 X18.9078 Y90.7349
G1 X18.6734 Y90.5226
G1 X18.4403 Y90.3089
G1 X18.2086 Y90.0937
G1 X17.9783 Y89.8771
G1 X17.7493 Y89.659
G1 X17.5217 Y89.4394
G1 X17.2955 Y89.2184
G1 X17.0707 Y88.996
G1 X16.9936 Y88.9191
G1 X20.5292 Y85.3836
G1 X20.3177 Y85.1707
G1 X20.1077 Y84.9565
G1 X19.8992 Y84.7409
G1 X19.692 Y84.5238
G1 X19.4864 Y84.3054
G1 X19.2822 Y84.0857
G1 X19.0794 Y83.8646
G1 X18.8782 Y83.6421
G1 X18.6784 Y83.4183
G1 X18.4801 Y83.1931
G1 X18.2833 Y82.9667
G1 X18.0881 Y82.7389
G1 X17.8943 Y82.5099
G1 X17.7021 Y82.2795
G1 X17.5114 Y82.0479
G1 X17.3223 Y81.815
G1 X17.1907 Y81.651
G1 X13.6353 Y85.2064
G1 X13.436 Y84.9609
G1 X13.2382 Y84.7141
G1 X13.0419 Y84.4662
G1 X12.8473 Y84.217
G1 X12.6542 Y83.9665
G1 X12.4627 Y83.7149
G1 X12.2728 Y83.462
G1 X12.0845 Y83.2079
G1 X11.8979 Y82.9527
G1 X11.7128 Y82.6963
G1 X11.5294 Y82.4387
G1 X11.3476 Y82.1799
G1 X11.1674 Y81.92
G1 X10.9889 Y81.659
G1 X10.812 Y81.3969
G1 X10.6368 Y81.1336
G1 X10.4633 Y80.8693
G1 X10.2914 Y80.6038
G1 X10.1213 Y80.3373
G1 X9.9528 Y80.0697
G1 X9.786 Y79.801
G1 X9.6209 Y79.5313
G1 X9.4575 Y79.2605
G1 X9.2959 Y78.9887
G1 X9.1359 Y78.7159
G1 X8.9777 Y78.4421
G1 X8.8212 Y78.1673
G1 X8.6665 Y77.8916
G1 X8.5135 Y77.6148
G1 X8.3623 Y77.3371
G1 X8.2128 Y77.0584
G1 X8.0651 Y76.7788
G1 X7.9191 Y76.4983
G1 X7.775 Y76.2168
G1 X7.6326 Y75.9344
G1 X7.492 Y75.6512
G1 X7.3532 Y75.367
G1 X7.2162 Y75.082
G1 X7.081 Y74.7962
G1 X6.9477 Y74.5094
G1 X6.8161 Y74.2219
G1 X6.6863 Y73.9335
G1 X6.5584 Y73.6443
G1 X6.4324 Y73.3543
G1 X6.3081 Y73.0635
G1 X6.1857 Y72.7719
G1 X6.0651 Y72.4796
G1 X5.9464 Y72.1865
G1 X5.8296 Y71.8926
G1 X5.7146 Y71.598
G1 X5.6015 Y71.3027
G1 X5.4902 Y71.0067
G1 X5.3808 Y70.71
G1 X5.2733 Y70.4126
G1 X5.1677 Y70.1146
G1 X5.064 Y69.8158
G1 X4.9621 Y69.5164
G1 X4.8622 Y69.2164
G1 X4.7641 Y68.9158
G1 X4.668 Y68.6145
G1 X4.5738 Y68.3127
G1 X4.4814 Y68.0102
G1 X4.391 Y67.7072
G1 X4.3025 Y67.4036
G1 X4.216 Y67.0994
G1 X4.1313 Y66.7948
G1 X4.0486 Y66.4895
G1 X3.9678 Y66.1838
G1 X3.889 Y65.8776
G1 X3.8121 Y65.5708
G1 X3.7371 Y65.2636
G1 X3.6641 Y64.9559
G1 X3.593 Y64.6478
G1 X3.5239 Y64.3392
G1 X3.4567 Y64.0302
G1 X3.3915 Y63.7208
G1 X3.3282 Y63.4109
G1 X3.2669 Y63.1007
G1 X3.2076 Y62.7901
G1 X3.1502 Y62.4791
G1 X3.0948 Y62.1678
G1 X3.0414 Y61.8561
G1 X2.9899 Y61.5441
G1 X2.9404 Y61.2318
G1 X2.8929 Y60.9191
G1 X2.8474 Y60.6062
G1 X2.8039 Y60.293
G1 X2.7623 Y59.9795
G1 X2.7227 Y59.6657
G1 X2.6851 Y59.3518
G1 X2.6495 Y59.0375
G1 X2.6159 Y58.7231
G1 X2.5842 Y58.4085
G1 X2.5546 Y58.0936
G1 X2.5269 Y57.7786
G1 X2.5013 Y57.4634
G1 X2.4776 Y57.1481
G1 X2.4559 Y56.8326
G1 X2.4363 Y56.517
G1 X2.4186 Y56.2013
G1 X2.4029 Y55.8854
G1 X2.3892 Y55.5695
G1 X2.3775 Y55.2535
G1 X2.3678 Y54.9374
G1 X2.3602 Y54.6213
G1 X2.3545 Y54.3051
G1 X2.3508 Y53.9889
G1 X2.3491 Y53.6727
G1 X2.349 Y53.5638
G1 X7.349
G1 X7.35 Y53.2638
G1 X7.353 Y52.9638
G1 X7.358 Y52.6638
G1 X7.365 Y52.3639
G1 X7.374 Y52.0641
G1 X7.385 Y51.7643
G1 X7.398 Y51.4645
G1 X7.413 Y51.1649
G1 X7.4299 Y50.8654
G1 X7.4489 Y50.566
G1 X7.4699 Y50.2667
G1 X7.4929 Y49.9676
G1 X7.5179 Y49.6687
G1 X7.5448 Y49.3699
G1 X7.5738 Y49.0713
G1 X7.6047 Y48.7729
G1 X7.6276 Y48.5638
G1 X2.5996
G1 X2.6322 Y48.2492
G1 X2.6668 Y47.9349
G1 X2.7034 Y47.6208
G1 X2.742 Y47.3069
G1 X2.7826 Y46.9933
G1 X2.8251 Y46.68
G1 X2.8696 Y46.3669
G1 X2.9161 Y46.0541
G1 X2.9646 Y45.7416
G1 X3.0151 Y45.4294
G1 X3.0675 Y45.1176
G1 X3.1219 Y44.8061
G1 X3.1783 Y44.4949
G1 X3.2366 Y44.1841
G1 X3.2969 Y43.8737
G1 X3.3592 Y43.5637
G1 X3.4234 Y43.254
G1 X3.4896 Y42.9448
G1 X3.5577 Y42.636
G1 X3.6278 Y42.3276
G1 X3.6999 Y42.0197
G1 X3.7739 Y41.7123
G1 X3.8498 Y41.4053
G1 X3.9276 Y41.0988
G1 X4.0075 Y40.7928
G1 X4.0892 Y40.4873
G1 X4.1729 Y40.1824
G1 X4.2585 Y39.8779
G1 X4.346 Y39.5741
G1 X4.4354 Y39.2707
G1 X4.5268 Y38.968
G1 X4.62 Y38.6658
G1 X4.7152 Y38.3643
G1 X4.8123 Y38.0633
G1 X4.9113 Y37.763
G1 X5.0122 Y37.4633
G1 X5.1149 Y37.1642
G1 X5.2196 Y36.8658
G1 X5.3261 Y36.5681
G1 X5.4346 Y36.271
G1 X5.5449 Y35.9747
G1 X5.6571 Y35.679
G1 X5.7711 Y35.384
G1 X5.887 Y35.0898
G1 X6.0048 Y34.7963
G1 X6.1244 Y34.5036
G1 X6.2459 Y34.2116
G1 X6.3692 Y33.9205
G1 X6.4943 Y33.63
G1 X6.6213 Y33.3404
G1 X6.7502 Y33.0516
G1 X6.8808 Y32.7637
G1 X7.0133 Y32.4765
G1 X7.1475 Y32.1902
G1 X7.2836 Y31.9048
G1 X7.4215 Y31.6202
G1 X7.5612 Y31.3365
G1 X7.7026 Y31.0536
G1 X7.8459 Y30.7717
G1 X7.9909 Y30.4907
G1 X8.1378 Y30.2106
G1 X8.2863 Y29.9315
G1 X8.4367 Y29.6533
G1 X8.5888 Y29.376
G1 X8.7426 Y29.0998
G1 X8.8982 Y28.8245
G1 X9.0556 Y28.5502
G1 X9.2146 Y28.2768
G1 X9.3754 Y28.0046
G1 X9.5379 Y27.7333
G1 X9.7022 Y27.463
G1 X9.8681 Y27.1938
G1 X10.0357 Y26.9257
G1 X10.205 Y26.6586
G1 X10.376 Y26.3926
G1 X10.5487 Y26.1277
G1 X10.7231 Y25.8639
G1 X10.8991 Y25.6012
G1 X11.0768 Y25.3396
G1 X11.2561 Y25.0791
G1 X11.4371 Y24.8198
G1 X11.6197 Y24.5616
G1 X11.8039 Y24.3046
G1 X11.9898 Y24.0488
G1 X12.1773 Y23.7941
G1 X12.3663 Y23.5406
G1 X12.557 Y23.2884
G1 X12.7493 Y23.0373
G1 X12.9432 Y22.7875
G1 X13.1386 Y22.5388
G1 X13.3356 Y22.2915
G1 X13.5342 Y22.0454
G1 X13.7343 Y21.8005
G1 X13.9359 Y21.5569
G1 X14.1391 Y21.3146
G1 X14.3439 Y21.0736
G1 X14.5501 Y20.8339
G1 X14.7579 Y20.5955
G1 X14.9671 Y20.3584
G1 X15.1779 Y20.1226
G1 X15.3901 Y19.8882
G1 X15.6038 Y19.6551
G1 X15.819 Y19.4234
G1 X16.0357 Y19.1931
G1 X16.2538 Y18.9641
G1 X16.4733 Y18.7365
G1 X16.6943 Y18.5103
G1 X16.9167 Y18.2855
G1 X16.9936 Y18.2084
G1 X20.5292 Y21.744
G1 X20.742 Y21.5325
G1 X20.9562 Y21.3225
G1 X21.1719 Y21.114
G1 X21.3889 Y20.9069
G1 X21.6073 Y20.7012
G1 X21.8271 Y20.497
G1 X22.0482 Y20.2942
G1 X22.2707 Y20.093
G1 X22.4945 Y19.8932
G1 X22.7196 Y19.6949
G1 X22.9461 Y19.4981
G1 X23.1738 Y19.3029
G1 X23.4029 Y19.1091
G1 X23.6332 Y18.9169
G1 X23.8648 Y18.7263
G1 X24.0977 Y18.5371
G1 X24.2617 Y18.4055
G0 Z3.0
M5
M30
