( Made using CamBam - http://www.cambam.co.uk )
( hackerspace 5/18/2013 5:54:57 AM )
( T0 : 0.0 )
G21 G90 G64 G40
G0 Z3.0
( T0 : 0.0 )
T0 M6
( Engrave1 )
G17
M3 S1000
G0 X61.3515 Y98.1492
G1 F300.0 Z-0.4
G1 F800.0 X81.3515
G1 Y93.1492
G1 X73.8515
G1 Y73.1492
G1 X78.8515
G1 X93.8515 Y98.1492
G1 Y73.1492
G1 X98.8515
G1 Y98.1492
G1 X103.8515
G1 Y73.1492
G1 X108.8515
G1 Y98.1492
G1 X123.8515
G1 Y88.1492
G1 X113.8515
G1 Y73.1492
G1 X128.8515
G1 Y98.1492
G1 X143.8515
G1 Y93.1492
G1 X133.8515
G1 Y88.4999
G1 X138.8515
G1 Y83.4999
G1 X133.8515
G1 Y78.1492
G1 X143.8515
G1 Y73.1492
G1 X148.8515
G1 Y98.1492
G1 X153.8515
G1 Y73.1492
G1 X220.3515
G1 Y38.1492
G1 X40.3515
G1 X220.3515
G0 Z3.0
G0 X215.3523 Y43.1492
G1 F300.0 Z-0.4
G1 F800.0 Y48.1492
G1 X205.3523
G1 Y53.4999
G1 X210.3523
G1 Y58.4999
G1 X205.3523
G1 Y63.1492
G1 X215.3523
G1 Y68.1492
G1 X200.3523
G1 Y43.1492
G1 X195.3523
G1 Y68.1492
G1 X180.3523 Y43.1492
G1 X165.3523
G1 Y58.1492
G1 X180.3523
G1 Y68.1492
G1 X150.3523
G1 X160.3523
G1 Y63.1492
G1 X145.3523
G1 Y53.1492
G1 X160.3523
G1 Y43.1492
G1 X145.3523
G1 X140.3523
G1 X130.3523 Y58.1492
G1 X140.3523
G1 Y68.1492
G1 X125.3523
G1 Y43.1492
G1 X120.3523
G1 Y48.1492
G1 X110.3523
G1 Y53.1492
G1 X115.3523
G1 Y58.1492
G1 X110.3523
G1 Y63.1492
G1 X120.3523
G1 Y68.1492
G1 X105.3523
G1 Y63.1492
G1 X90.3523
G1 Y48.1492
G1 X100.3523
G1 Y43.1492
G1 X85.3523
G1 Y68.1492
G1 X70.3523 Y43.1492
G1 Y68.1492
G1 X65.3523
G1 Y43.1492
G1 X60.3523
G1 Y58.1492
G1 X50.3523
G1 Y43.1492
G1 X45.3523
G1 Y73.1492
G1 X68.8515
G1 Y93.1492
G1 X61.3515
G1 Y98.1492
G0 Z3.0
G0 X40.3515 Y103.1492
G1 F300.0 Z-0.4
G1 F800.0 X220.3515
G1 Y73.1492
G0 Z3.0
M5
M30
