( Made using CamBam - http://www.cambam.co.uk )
( wall2-1 5/18/2013 3:26:32 AM )
( T0 : 0.0 )
G21 G90 G64 G40
G0 Z3.0
( T0 : 0.0 )
T0 M6
( Engrave1 )
G17
M3 S1000
G0 X10.2581 Y8.315
G1 F300.0 Z-0.4
G1 F800.0 Y2.315
G1 X92.8226
G1 Y11.3948
G1 X112.8226
G1 X112.9226 Y11.3938
G1 X113.0225 Y11.3908
G1 X113.1224 Y11.3858
G1 X113.2222 Y11.3788
G1 X113.3218 Y11.3698
G1 X113.4212 Y11.3588
G1 X113.5203 Y11.3459
G1 X113.6192 Y11.3309
G1 X113.7178 Y11.314
G1 X113.816 Y11.2951
G1 X113.9138 Y11.2743
G1 X114.0111 Y11.2515
G1 X114.108 Y11.2267
G1 X114.2044 Y11.2001
G1 X114.3002 Y11.1715
G1 X114.3954 Y11.141
G1 X114.4901 Y11.1086
G1 X114.584 Y11.0743
G1 X114.6772 Y11.0381
G1 X114.7697 Y11.0001
G1 X114.8614 Y10.9602
G1 X114.9523 Y10.9185
G1 X115.0424 Y10.875
G1 X115.1315 Y10.8298
G1 X115.2198 Y10.7827
G1 X115.307 Y10.7339
G1 X115.3933 Y10.6833
G1 X115.4786 Y10.631
G1 X115.5628 Y10.5771
G1 X115.6458 Y10.5214
G1 X115.7278 Y10.4642
G1 X115.8086 Y10.4052
G1 X115.8882 Y10.3447
G1 X115.9666 Y10.2826
G1 X116.0437 Y10.219
G1 X116.1196 Y10.1538
G1 X116.1941 Y10.0871
G1 X116.2672 Y10.0189
G1 X116.339 Y9.9493
G1 X116.4094 Y9.8783
G1 X116.4784 Y9.8059
G1 X116.5459 Y9.7321
G1 X116.6119 Y9.6569
G1 X116.6763 Y9.5805
G1 X116.7393 Y9.5028
G1 X116.8006 Y9.4238
G1 X116.8604 Y9.3437
G1 X116.9186 Y9.2623
G1 X116.9751 Y9.1798
G1 X117.03 Y9.0962
G1 X117.0832 Y9.0116
G1 X117.1347 Y8.9258
G1 X117.1844 Y8.8391
G1 X117.2324 Y8.7514
G1 X117.2787 Y8.6627
G1 X117.3231 Y8.5731
G1 X117.3658 Y8.4827
G1 X117.4066 Y8.3914
G1 X117.4457 Y8.2993
G1 X117.4828 Y8.2065
G1 X117.5181 Y8.1129
G1 X117.5515 Y8.0187
G1 X117.5831 Y7.9238
G1 X117.6127 Y7.8283
G1 X117.6404 Y7.7322
G1 X117.6662 Y7.6356
G1 X117.69 Y7.5385
G1 X117.7119 Y7.4409
G1 X117.7319 Y7.3429
G1 X117.7499 Y7.2445
G1 X117.7659 Y7.1458
G1 X117.7799 Y7.0468
G1 X117.7919 Y6.9475
G1 X117.802 Y6.848
G1 X117.8101 Y6.7484
G1 X117.8161 Y6.6485
G1 X117.8202 Y6.5486
G1 X117.8223 Y6.4486
G1 X117.8226 Y6.3948
G1 X117.9533 Y6.6779
G1 X118.0858 Y6.9602
G1 X118.2202 Y7.2417
G1 X118.3563 Y7.5222
G1 X118.4942 Y7.8019
G1 X118.634 Y8.0807
G1 X118.6484 Y8.1092
G1 X118.8577 Y8.519
G1 X118.9829 Y8.7595
G1 X119.1098 Y8.9992
G1 X119.2385 Y9.2378
G1 X119.369 Y9.4756
G1 X119.5012 Y9.7123
G1 X119.6351 Y9.9481
G1 X119.735 Y10.1213
G1 X119.9598 Y10.5012
G1 X120.0227 Y10.6063
G1 X120.073 Y10.6877
G1 X120.186 Y10.8708
G1 X120.3006 Y11.0528
G1 X120.4169 Y11.2338
G1 X120.5349 Y11.4137
G1 X120.5387 Y11.4195
G1 X120.656 Y11.5949
G1 X120.7789 Y11.7735
G1 X120.9034 Y11.951
G1 X121.0295 Y12.1273
G1 X121.1396 Y12.2786
G1 X121.1505 Y12.2938
G1 X121.1548 Y12.299
G1 X121.2584 Y12.4369
G1 X121.3637 Y12.5737
G1 X121.4006 Y12.6209
G1 X121.4959 Y12.7423
G1 X121.5928 Y12.8624
G1 X121.6912 Y12.9812
G1 X121.7912 Y13.0988
G1 X121.8927 Y13.2151
G1 X121.9957 Y13.33
G1 X122.1001 Y13.4436
G1 X122.2061 Y13.5558
G1 X122.3134 Y13.6667
G1 X122.4223 Y13.7761
G1 X122.4574 Y13.8109
G1 X122.5238 Y13.8749
G1 X122.5905 Y13.9379
G1 X122.6822 Y14.0226
G1 X122.7753 Y14.1057
G1 X122.8697 Y14.1874
G1 X122.9654 Y14.2675
G1 X123.0624 Y14.3461
G1 X123.1458 Y14.4118
G1 X123.2298 Y14.4761
G1 X123.3151 Y14.5388
G1 X123.4015 Y14.6
G1 X123.489 Y14.6594
G1 X123.5776 Y14.7172
G1 X123.6673 Y14.7734
G1 X123.7222 Y14.8065
G1 X123.8036 Y14.8548
G1 X123.886 Y14.9013
G1 X123.9693 Y14.9461
G1 X124.0536 Y14.9891
G1 X124.1388 Y15.0303
G1 X124.2248 Y15.0697
G1 X124.3117 Y15.1073
G1 X124.3156 Y15.1089
G1 X124.3949 Y15.1419
G1 X124.4751 Y15.173
G1 X124.5559 Y15.2022
G1 X124.6373 Y15.2296
G1 X124.7194 Y15.255
G1 X124.8021 Y15.2785
G1 X124.8853 Y15.3001
G1 X124.9689 Y15.3198
G1 X125.053 Y15.3375
G1 X125.1375 Y15.3532
G1 X125.2223 Y15.367
G1 X125.3075 Y15.3788
G1 X125.3929 Y15.3886
G1 X125.4784 Y15.3964
G1 X125.544 Y15.4011
G1 X125.6299 Y15.4046
G1 X125.7158 Y15.4062
G1 X125.8017 Y15.4057
G1 X125.8876 Y15.4032
G1 X125.9735 Y15.3988
G1 X126.0592 Y15.3923
G1 X126.1447 Y15.3839
G1 X126.23 Y15.3735
G1 X126.3151 Y15.3611
G1 X126.3998 Y15.3467
G1 X126.4842 Y15.3303
G1 X126.5682 Y15.312
G1 X126.6517 Y15.2918
G1 X126.682 Y15.2839
G1 X126.7777 Y15.2576
G1 X126.8728 Y15.2293
G1 X126.9673 Y15.1992
G1 X127.0613 Y15.1671
G1 X127.1545 Y15.1332
G1 X127.2471 Y15.0974
G1 X127.3389 Y15.0597
G1 X127.4299 Y15.0202
G1 X127.5201 Y14.9788
G1 X127.6095 Y14.9357
G1 X127.666 Y14.9073
G1 X127.7755 Y14.8504
G1 X127.8841 Y14.7918
G1 X127.9917 Y14.7315
G1 X128.0983 Y14.6694
G1 X128.2039 Y14.6056
G1 X128.3085 Y14.5401
G1 X128.4119 Y14.4729
G1 X128.5105 Y14.4066
G1 X128.6325 Y14.3222
G1 X128.7534 Y14.2362
G1 X128.8732 Y14.1486
G1 X128.9917 Y14.0593
G1 X129.109 Y13.9685
G1 X129.2251 Y13.8761
G1 X129.2478 Y13.8577
G1 X129.4011 Y13.7316
G1 X129.5532 Y13.604
G1 X129.7039 Y13.4748
G1 X129.8534 Y13.3441
G1 X129.9044 Y13.2989
G1 X130.0547 Y13.1634
G1 X130.2592 Y12.9741
G1 X130.4622 Y12.7834
G1 X130.664 Y12.5912
G1 X130.8643 Y12.3975
G1 X131.0632 Y12.2025
G1 X131.206 Y12.0607
G1 X131.4538 Y11.8135
G1 X131.7338 Y11.5329
G1 X131.9324 Y11.3322
G1 X132.3818 Y10.8801
G1 X132.806 Y10.4578
G1 X133.2079 Y10.0648
G1 X133.2581 Y10.0152
G1 X133.3029 Y9.9732
G1 X133.6802 Y9.6158
G1 X133.7883 Y9.5148
G1 X133.8592 Y9.4501
G1 X134.0341 Y9.291
G1 X134.205 Y9.1382
G1 X134.3465 Y9.0132
G1 X134.4893 Y8.8896
G1 X134.6335 Y8.7676
G1 X134.7789 Y8.6472
G1 X134.8823 Y8.563
G1 X135.012 Y8.4583
G1 X135.1429 Y8.3551
G1 X135.2751 Y8.2535
G1 X135.4084 Y8.1535
G1 X135.4992 Y8.0869
G1 X135.6196 Y7.9989
G1 X135.7412 Y7.9126
G1 X135.8639 Y7.8279
G1 X135.9877 Y7.7448
G1 X136.1126 Y7.6634
G1 X136.2386 Y7.5837
G1 X136.3657 Y7.5057
G1 X136.4938 Y7.4294
G1 X136.623 Y7.3549
G1 X136.6441 Y7.3429
G1 X136.8694 Y7.2197
G1 X136.9799 Y7.1616
G1 X137.0914 Y7.1052
G1 X137.2037 Y7.0507
G1 X137.3169 Y6.998
G1 X137.4309 Y6.9471
G1 X137.5457 Y6.898
G1 X137.6613 Y6.8508
G1 X137.7445 Y6.8181
G1 X137.8512 Y6.7771
G1 X137.9586 Y6.738
G1 X138.0667 Y6.7008
G1 X138.1754 Y6.6655
G1 X138.2848 Y6.6321
G1 X138.3947 Y6.6006
G1 X138.5051 Y6.571
G1 X138.616 Y6.5434
G1 X138.7274 Y6.5177
G1 X138.8393 Y6.494
G1 X138.9515 Y6.4722
G1 X139.0641 Y6.4524
G1 X139.1378 Y6.4405
G1 X139.2451 Y6.4248
G1 X139.3528 Y6.4111
G1 X139.4607 Y6.3993
G1 X139.5687 Y6.3896
G1 X139.677 Y6.3818
G1 X139.7853 Y6.376
G1 X139.8938 Y6.3723
G1 X140.0023 Y6.3705
G1 X140.1108 Y6.3707
G1 X140.2193 Y6.3729
G1 X140.3278 Y6.3772
G1 X140.4361 Y6.3834
G1 X140.5443 Y6.3916
G1 X140.5805 Y6.3948
G1 Y46.3948
G1 X122.8226
G1 Y36.3948
G1 X117.8226
G1 Y46.3948
G1 X84.2223
G1 Y36.3948
G1 X79.2223
G1 Y46.3948
G1 X78.9371 Y46.1747
G1 X78.6507 Y45.9562
G1 X78.3632 Y45.7393
G1 X78.0744 Y45.524
G1 X77.7844 Y45.3103
G1 X77.4933 Y45.0982
G1 X77.2009 Y44.8878
G1 X76.9074 Y44.679
G1 X76.6128 Y44.4718
G1 X76.317 Y44.2662
G1 X76.0201 Y44.0623
G1 X75.722 Y43.86
G1 X75.4228 Y43.6594
G1 X75.1226 Y43.4605
G1 X74.9212 Y43.3284
G1 X74.6396 Y43.146
G1 X74.357 Y42.9653
G1 X74.0733 Y42.7862
G1 X73.7885 Y42.6089
G1 X73.5027 Y42.4333
G1 X73.431 Y42.3896
G1 X73.0287 Y42.1472
G1 X72.7617 Y41.9884
G1 X72.4937 Y41.8313
G1 X72.2246 Y41.6759
G1 X71.9546 Y41.5223
G1 X71.6836 Y41.3704
G1 X71.4116 Y41.2203
G1 X71.1387 Y41.0719
G1 X70.8648 Y40.9252
G1 X70.8473 Y40.916
G1 X70.5614 Y40.7651
G1 X70.2653 Y40.6113
G1 X69.9763 Y40.4644
G1 X69.6864 Y40.3192
G1 X69.3957 Y40.1759
G1 X69.104 Y40.0343
G1 X68.8978 Y39.9355
G1 X68.8109 Y39.8945
G1 X68.5503 Y39.7725
G1 X68.2888 Y39.6524
G1 X68.0265 Y39.5341
G1 X67.7634 Y39.4176
G1 X67.4994 Y39.3029
G1 X67.2347 Y39.1901
G1 X66.9692 Y39.0791
G1 X66.703 Y38.97
G1 X66.436 Y38.8627
G1 X66.1682 Y38.7573
G1 X65.8998 Y38.6537
G1 X65.6306 Y38.5521
G1 X65.3607 Y38.4522
G1 X65.0901 Y38.3543
G1 X65.0213 Y38.3297
G1 X64.7622 Y38.2391
G1 X64.5024 Y38.1504
G1 X64.242 Y38.0636
G1 X63.9809 Y37.9786
G1 X63.7193 Y37.8956
G1 X63.457 Y37.8145
G1 X63.1942 Y37.7352
G1 X62.9308 Y37.658
G1 X62.7881 Y37.617
G1 X62.6459 Y37.5769
G1 X62.5025 Y37.5372
G1 X62.2524 Y37.4694
G1 X62.0018 Y37.4035
G1 X61.7507 Y37.3396
G1 X61.4991 Y37.2776
G1 X61.2471 Y37.2176
G1 X60.9946 Y37.1595
G1 X60.7416 Y37.1033
G1 X60.4882 Y37.0491
G1 X60.2345 Y36.9969
G1 X59.9803 Y36.9466
G1 X59.85 Y36.9217
G1 X59.6034 Y36.876
G1 X59.3564 Y36.8324
G1 X59.1091 Y36.7907
G1 X58.8615 Y36.751
G1 X58.6136 Y36.7133
G1 X58.3654 Y36.6775
G1 X58.1169 Y36.6437
G1 X57.8682 Y36.6119
G1 X57.6192 Y36.5821
G1 X57.3699 Y36.5543
G1 X57.1205 Y36.5285
G1 X56.8708 Y36.5046
G1 X56.7647 Y36.4951
G1 X56.5246 Y36.4749
G1 X56.2842 Y36.4567
G1 X56.0438 Y36.4405
G1 X55.8032 Y36.4263
G1 X55.5625 Y36.4141
G1 X55.3217 Y36.4039
G1 X55.0808 Y36.3957
G1 X54.8399 Y36.3895
G1 X54.5989 Y36.3853
G1 X54.3579 Y36.3831
G1 X54.1169 Y36.3829
G1 X53.8759 Y36.3846
G1 X53.6349 Y36.3884
G1 X53.394 Y36.3942
G1 X53.1531 Y36.402
G1 X52.9123 Y36.4118
G1 X52.6716 Y36.4236
G1 X52.431 Y36.4374
G1 X52.1905 Y36.4531
G1 X51.9501 Y36.4709
G1 X51.7099 Y36.4907
G1 X51.4699 Y36.5124
G1 X51.23 Y36.5362
G1 X50.9904 Y36.5619
G1 X50.751 Y36.5897
G1 X50.5118 Y36.6194
G1 X50.2729 Y36.6511
G1 X50.0343 Y36.6847
G1 X49.7959 Y36.7204
G1 X49.5579 Y36.758
G1 X49.3201 Y36.7976
G1 X49.0827 Y36.8392
G1 X48.8457 Y36.8828
G1 X48.609 Y36.9283
G1 X48.4636 Y36.9573
G1 X48.2219 Y37.0073
G1 X47.9806 Y37.0593
G1 X47.7398 Y37.1132
G1 X47.4993 Y37.1691
G1 X47.2594 Y37.227
G1 X47.0199 Y37.2868
G1 X46.7809 Y37.3485
G1 X46.5424 Y37.4122
G1 X46.3045 Y37.4778
G1 X46.0671 Y37.5453
G1 X45.8302 Y37.6147
G1 X45.5939 Y37.6861
G1 X45.3582 Y37.7593
G1 X45.1231 Y37.8345
G1 X44.8886 Y37.9116
G1 X44.6548 Y37.9906
G1 X44.4216 Y38.0714
G1 X44.189 Y38.1542
G1 X43.9572 Y38.2388
G1 X43.8757 Y38.2691
G1 X43.6178 Y38.3667
G1 X43.3606 Y38.4661
G1 X43.1042 Y38.5674
G1 X42.8485 Y38.6706
G1 X42.728 Y38.72
G1 X42.4879 Y38.8206
G1 X42.2485 Y38.9231
G1 X42.01 Y39.0275
G1 X41.7723 Y39.1337
G1 X41.5613 Y39.2297
G1 X41.3204 Y39.3415
G1 X41.0804 Y39.4551
G1 X40.8412 Y39.5705
G1 X40.6029 Y39.6877
G1 X40.3774 Y39.8007
G1 X40.0825 Y39.9514
G1 X39.8373 Y40.0794
G1 X39.593 Y40.2091
G1 X39.3497 Y40.3406
G1 X39.1074 Y40.4739
G1 X38.866 Y40.6089
G1 X38.6256 Y40.7457
G1 X38.3862 Y40.8842
G1 X38.1478 Y41.0244
G1 X37.9104 Y41.1664
G1 X37.6741 Y41.31
G1 X37.6224 Y41.3418
G1 X37.3757 Y41.4945
G1 X37.1301 Y41.6488
G1 X36.8856 Y41.8049
G1 X36.6421 Y41.9626
G1 X36.3997 Y42.122
G1 X36.1585 Y42.2831
G1 X35.9184 Y42.4459
G1 X35.6793 Y42.6102
G1 X35.4415 Y42.7763
G1 X35.2048 Y42.944
G1 X35.1135 Y43.0092
G1 X34.8058 Y43.2314
G1 X34.5538 Y43.4165
G1 X34.3029 Y43.6031
G1 X34.0533 Y43.7913
G1 X33.8048 Y43.9812
G1 X33.5576 Y44.1726
G1 X33.3117 Y44.3656
G1 X33.0669 Y44.5601
G1 X32.8234 Y44.7563
G1 X32.5812 Y44.9539
G1 X32.3402 Y45.1532
G1 X32.2574 Y45.2222
G1 X31.9457 Y45.4845
G1 X31.6335 Y45.7511
G1 X31.3794 Y45.9712
G1 X31.1265 Y46.1929
G1 X30.875 Y46.416
G1 X30.6248 Y46.6406
G1 X30.376 Y46.8667
G1 X30.1285 Y47.0943
G1 X29.8823 Y47.3234
G1 X29.6375 Y47.5539
G1 X29.3941 Y47.7858
G1 X29.1521 Y48.0192
G1 X29.0571 Y48.1116
G1 X28.7426 Y48.4195
G1 X28.4831 Y48.6768
G1 X28.225 Y48.9355
G1 X27.9683 Y49.1956
G1 X27.713 Y49.4572
G1 X27.4592 Y49.7201
G1 X27.2068 Y49.9844
G1 X26.9558 Y50.2501
G1 X26.7063 Y50.5171
G1 X26.4583 Y50.7856
G1 X26.2118 Y51.0553
G1 X26.152 Y51.1212
G1 X25.8859 Y51.416
G1 X25.6212 Y51.7121
G1 X25.3581 Y52.0096
G1 X25.0965 Y52.3084
G1 X24.8363 Y52.6084
G1 X24.5777 Y52.9098
G1 X24.3206 Y53.2125
G1 X24.065 Y53.5165
G1 X23.811 Y53.8218
G1 X23.5585 Y54.1284
G1 X23.5551 Y54.1325
G1 X23.3972 Y54.3256
G1 X23.1316 Y54.6527
G1 X22.8676 Y54.981
G1 X22.6051 Y55.3106
G1 X22.3443 Y55.6414
G1 X22.0849 Y55.9735
G1 X21.8272 Y56.3068
G1 X21.5711 Y56.6413
G1 X21.3165 Y56.977
G1 X21.0635 Y57.3139
G1 X20.8122 Y57.652
G1 X20.7985 Y57.6705
G1 X20.6405 Y57.8842
G1 X20.4825 Y58.099
G1 X20.3245 Y58.315
G1 Y68.315
G1 X20.0732 Y68.3669
G1 X19.8215 Y68.4169
G1 X19.5694 Y68.4649
G1 X19.3169 Y68.5109
G1 X19.0641 Y68.555
G1 X18.8109 Y68.597
G1 X18.5574 Y68.6371
G1 X18.3036 Y68.6753
G1 X18.0952 Y68.7051
G1 X17.8304 Y68.7407
G1 X17.5671 Y68.7736
G1 X17.3198 Y68.8017
G1 X17.0722 Y68.8279
G1 X16.8245 Y68.8521
G1 X16.5766 Y68.8743
G1 X16.5184 Y68.8792
G1 X16.283 Y68.8966
G1 X16.0474 Y68.9119
G1 X15.8117 Y68.9252
G1 X15.5759 Y68.9366
G1 X15.4967 Y68.9399
G1 X15.2994 Y68.9471
G1 X15.102 Y68.9522
G1 X14.9045 Y68.9553
G1 X14.707 Y68.9564
G1 X14.5096 Y68.9555
G1 X14.3121 Y68.9527
G1 X14.1147 Y68.9478
G1 X13.9173 Y68.9409
G1 X13.7201 Y68.932
G1 X13.5229 Y68.9212
G1 X13.511 Y68.9204
G1 X13.3287 Y68.9084
G1 X13.1466 Y68.8943
G1 X12.9646 Y68.8783
G1 X12.7828 Y68.8602
G1 X12.6012 Y68.8402
G1 X12.4199 Y68.8182
G1 X12.2388 Y68.7942
G1 X12.0579 Y68.7682
G1 X11.8774 Y68.7402
G1 X11.6972 Y68.7103
G1 X11.6602 Y68.7039
G1 X11.5007 Y68.6749
G1 X11.3415 Y68.644
G1 X11.1827 Y68.6111
G1 X11.0244 Y68.5762
G1 X10.8665 Y68.5394
G1 X10.709 Y68.5007
G1 X10.5521 Y68.46
G1 X10.3956 Y68.4174
G1 X10.2397 Y68.3728
G1 X10.0844 Y68.3264
G1 X9.9673 Y68.29
G1 X9.8308 Y68.2463
G1 X9.6949 Y68.2008
G1 X9.5596 Y68.1534
G1 X9.425 Y68.1041
G1 X9.2911 Y68.053
G1 X9.201 Y68.0173
G1 X9.0669 Y67.9636
G1 X8.9336 Y67.908
G1 X8.801 Y67.8506
G1 X8.6693 Y67.7913
G1 X8.5383 Y67.7303
G1 X8.4083 Y67.6674
G1 X8.2791 Y67.6027
G1 X8.1508 Y67.5363
G1 X8.0235 Y67.468
G1 X7.8971 Y67.3981
G1 X7.787 Y67.3352
G1 X7.6663 Y67.2644
G1 X7.5465 Y67.1918
G1 X7.4278 Y67.1175
G1 X7.3102 Y67.0416
G1 X7.1937 Y66.9639
G1 X7.0783 Y66.8846
G1 X6.9641 Y66.8037
G1 X6.851 Y66.7212
G1 X6.7391 Y66.637
G1 X6.6284 Y66.5512
G1 X6.519 Y66.4639
G1 X6.4108 Y66.375
G1 X6.3039 Y66.2846
G1 X6.1983 Y66.1927
G1 X6.094 Y66.0993
G1 X5.991 Y66.0043
G1 X5.8895 Y65.908
G1 X5.7893 Y65.8102
G1 X5.6905 Y65.7109
G1 X5.5932 Y65.6103
G1 X5.5069 Y65.5186
G1 X5.4088 Y65.4109
G1 X5.3122 Y65.3019
G1 X5.2172 Y65.1916
G1 X5.1236 Y65.08
G1 X5.0316 Y64.9671
G1 X4.9412 Y64.8529
G1 X4.8523 Y64.7375
G1 X4.7651 Y64.621
G1 X4.6794 Y64.5032
G1 X4.5954 Y64.3842
G1 X4.513 Y64.2642
G1 X4.4323 Y64.143
G1 X4.3532 Y64.0207
G1 X4.2758 Y63.8973
G1 X4.2002 Y63.7729
G1 X4.1262 Y63.6474
G1 X4.054 Y63.5209
G1 X4.0288 Y63.4759
G1 X3.9529 Y63.338
G1 X3.8788 Y63.1991
G1 X3.8064 Y63.0593
G1 X3.7359 Y62.9185
G1 X3.6671 Y62.7769
G1 X3.6001 Y62.6344
G1 X3.5369 Y62.4953
G1 X3.469 Y62.3402
G1 X3.403 Y62.1844
G1 X3.3388 Y62.0277
G1 X3.2764 Y61.8703
G1 X3.216 Y61.7122
G1 X3.1574 Y61.5533
G1 X3.1006 Y61.3938
G1 X3.0458 Y61.2337
G1 X2.9929 Y61.0728
G1 X2.9418 Y60.9114
G1 X2.8927 Y60.7494
G1 X2.8455 Y60.5868
G1 X2.8395 Y60.5656
G1 X2.7892 Y60.3844
G1 X2.7409 Y60.2026
G1 X2.6945 Y60.0203
G1 X2.65 Y59.8376
G1 X2.6075 Y59.6544
G1 X2.5669 Y59.4707
G1 X2.5283 Y59.2866
G1 X2.4916 Y59.1021
G1 X2.4569 Y58.9173
G1 X2.4393 Y58.8192
G1 X2.4082 Y58.6408
G1 X2.3791 Y58.462
G1 X2.3746 Y58.4329
G1 X2.3432 Y58.2263
G1 X2.3139 Y58.0193
G1 X2.2865 Y57.8121
G1 X2.2611 Y57.6046
G1 X2.2377 Y57.3968
G1 X2.2162 Y57.1889
G1 X2.1968 Y56.9808
G1 X2.1921 Y56.9268
G1 X2.1737 Y56.6952
G1 X2.1572 Y56.4634
G1 X2.1428 Y56.2316
G1 X2.1303 Y55.9996
G1 X2.1198 Y55.7675
G1 X2.1114 Y55.5353
G1 X2.1049 Y55.3031
G1 X2.1005 Y55.0708
G1 X2.098 Y54.8385
G1 X2.0975 Y54.6062
G1 X2.0991 Y54.3739
G1 X2.1003 Y54.2753
G1 X2.1047 Y54.0265
G1 X2.112 Y53.7648
G1 X2.1213 Y53.5031
G1 X2.1326 Y53.2415
G1 X2.1458 Y52.98
G1 X2.1611 Y52.7185
G1 X2.1784 Y52.4573
G1 X2.1976 Y52.1961
G1 X2.2051 Y52.1019
G1 X2.2361 Y51.7419
G1 X2.2624 Y51.4671
G1 X2.2906 Y51.1926
G1 X2.3209 Y50.9182
G1 X2.3531 Y50.6441
G1 X2.3873 Y50.3702
G1 X2.4235 Y50.0966
G1 X2.4617 Y49.8232
G1 X2.5018 Y49.5502
G1 X2.544 Y49.2774
G1 X2.58 Y49.0539
G1 X2.6295 Y48.7593
G1 X2.681 Y48.465
G1 X2.7345 Y48.1711
G1 X2.7899 Y47.8775
G1 X2.8473 Y47.5844
G1 X2.9067 Y47.2916
G1 X2.968 Y46.9992
G1 X3.0313 Y46.7072
G1 X3.0965 Y46.4157
G1 X3.1012 Y46.3948
G1 X3.147 Y46.1966
G1 X3.2152 Y45.9095
G1 X3.2853 Y45.6228
G1 X3.3573 Y45.3366
G1 X3.4313 Y45.0508
G1 X3.5072 Y44.7656
G1 X3.5851 Y44.4809
G1 X3.6648 Y44.1968
G1 X3.7465 Y43.9132
G1 X3.8301 Y43.6301
G1 X3.9157 Y43.3476
G1 X4.0031 Y43.0658
G1 X4.0925 Y42.7845
G1 X4.1837 Y42.5038
G1 X4.2769 Y42.2237
G1 X4.3719 Y41.9443
G1 X4.4689 Y41.6656
G1 X4.5677 Y41.3875
G1 X4.6684 Y41.11
G1 X4.771 Y40.8333
G1 X4.8755 Y40.5573
G1 X4.9818 Y40.2819
G1 X5.0761 Y40.0423
G1 X5.1681 Y39.8107
G1 X5.2619 Y39.5797
G1 X5.3023 Y39.482
G1 X5.4299 Y39.1762
G1 X5.5594 Y38.8711
G1 X5.6907 Y38.5668
G1 X5.8238 Y38.2633
G1 X5.9588 Y37.9606
G1 X6.0956 Y37.6587
G1 X6.2342 Y37.3577
G1 X6.3747 Y37.0575
G1 X6.5169 Y36.7582
G1 X6.661 Y36.4597
G1 X6.8068 Y36.1621
G1 X6.9544 Y35.8654
G1 X7.1039 Y35.5696
G1 X7.2551 Y35.2747
G1 X7.2746 Y35.2368
G1 X7.4437 Y34.9095
G1 X7.6146 Y34.5831
G1 X7.7873 Y34.2576
G1 X7.9617 Y33.9331
G1 X8.096 Y33.6859
G1 X8.2803 Y33.3492
G1 X8.499 Y32.9539
G1 X8.7194 Y32.5597
G1 X8.9416 Y32.1664
G1 X9.1655 Y31.7741
G1 X9.3912 Y31.3828
G1 X9.6185 Y30.9925
G1 X9.7526 Y30.7642
G1 X10.3205 Y29.8039
G1 X10.8224 Y28.9667
G1 X11.2645 Y28.236
G1 X11.4586 Y27.9168
G1 X11.8237 Y27.3187
G1 X13.1072 Y25.2293
G1 X13.7501 Y24.1853
G1 X14.0713 Y23.6631
G1 X14.3922 Y23.1408
G1 X14.5681 Y22.8541
G1 X14.9179 Y22.2824
G1 X15.0914 Y21.9979
G1 X15.4363 Y21.4295
G1 X15.7586 Y20.894
G1 X16.0791 Y20.3575
G1 X16.1173 Y20.2933
G1 X16.1824 Y20.1839
G1 X16.2012 Y20.1516
G1 X16.5346 Y19.5842
G1 X16.7508 Y19.2122
G1 X16.9653 Y18.8391
G1 X17.178 Y18.465
G1 X17.1881 Y18.447
G1 X17.5033 Y17.8834
G1 X17.5236 Y17.8488
G1 X17.5419 Y17.8137
G1 X17.7134 Y17.5007
G1 X17.8832 Y17.1867
G1 X18.0513 Y16.8718
G1 X18.1445 Y16.6952
G1 X18.2755 Y16.4453
G1 X18.4047 Y16.1944
G1 X18.5321 Y15.9427
G1 X18.6577 Y15.6901
G1 X18.7816 Y15.4365
G1 X18.9036 Y15.1821
G1 X19.0238 Y14.9269
G1 X19.1422 Y14.6708
G1 X19.2138 Y14.5137
G1 X19.2698 Y14.3883
G1 X19.3689 Y14.1614
G1 X19.4661 Y13.9338
G1 X19.5615 Y13.7053
G1 X19.655 Y13.4761
G1 X19.6934 Y13.3804
G1 X19.731 Y13.285
G1 X19.7416 Y13.2571
G1 X19.7686 Y13.1887
G1 X19.7888 Y13.1339
G1 X19.8123 Y13.0746
G1 X19.8338 Y13.0145
G1 X19.8351 Y13.0109
G1 X19.9247 Y12.765
G1 X19.9827 Y12.6005
G1 X20.0388 Y12.4352
G1 X20.093 Y12.2694
G1 X20.1454 Y12.1029
G1 X20.1958 Y11.9359
G1 X20.2418 Y11.777
G1 X20.2814 Y11.6321
G1 X20.3192 Y11.4868
G1 X20.3549 Y11.341
G1 X20.3888 Y11.1947
G1 X20.4207 Y11.048
G1 X20.4506 Y10.9008
G1 X20.4679 Y10.8108
G1 X20.4881 Y10.6983
G1 X20.5064 Y10.5855
G1 X20.5227 Y10.4723
G1 X20.5371 Y10.3589
G1 X20.5494 Y10.2452
G1 X20.5597 Y10.1314
G1 X20.5681 Y10.0174
G1 X20.5745 Y9.9032
G1 X20.5753 Y9.8855
G1 X20.5787 Y9.7777
G1 X20.5798 Y9.6708
G1 X20.5795 Y9.5831
G1 X20.5772 Y9.4955
G1 X20.5729 Y9.4079
G1 X20.5666 Y9.3205
G1 X20.5583 Y9.2332
G1 X20.548 Y9.1461
G1 X20.5358 Y9.0593
G1 X20.5215 Y8.9728
G1 X20.5053 Y8.8866
G1 X20.4936 Y8.8302
G1 X20.4777 Y8.7606
G1 X20.4598 Y8.6914
G1 X20.44 Y8.6228
G1 X20.4183 Y8.5548
G1 X20.3947 Y8.4874
G1 X20.3692 Y8.4207
G1 X20.3418 Y8.3547
G1 X20.3127 Y8.2896
G1 X20.2817 Y8.2252
G1 X20.2489 Y8.1618
G1 X20.2212 Y8.1115
G1 X20.1882 Y8.0551
G1 X20.1534 Y7.9997
G1 X20.117 Y7.9454
G1 X20.0789 Y7.8922
G1 X20.0392 Y7.8403
G1 X19.9979 Y7.7896
G1 X19.9551 Y7.7401
G1 X19.9108 Y7.692
G1 X19.8651 Y7.6453
G1 X19.8179 Y7.6
G1 X19.7854 Y7.5703
G1 X19.7322 Y7.5244
G1 X19.6778 Y7.48
G1 X19.622 Y7.4371
G1 X19.5651 Y7.3959
G1 X19.5071 Y7.3563
G1 X19.4479 Y7.3184
G1 X19.3877 Y7.2822
G1 X19.3265 Y7.2477
G1 X19.2643 Y7.2149
G1 X19.2614 Y7.2134
G1 X19.1892 Y7.1781
G1 X19.1162 Y7.1446
G1 X19.0424 Y7.113
G1 X18.9678 Y7.0832
G1 X18.8925 Y7.0552
G1 X18.8166 Y7.0292
G1 X18.74 Y7.005
G1 X18.7166 Y6.9981
G1 X18.6209 Y6.9717
G1 X18.5246 Y6.9472
G1 X18.4279 Y6.9247
G1 X18.3307 Y6.9042
G1 X18.2332 Y6.8856
G1 X18.1353 Y6.8689
G1 X18.0371 Y6.8543
G1 X17.9386 Y6.8416
G1 X17.8398 Y6.8309
G1 X17.7409 Y6.8222
G1 X17.6427 Y6.8155
G1 X17.613 Y6.8136
G1 X17.5032 Y6.8069
G1 X17.3932 Y6.8022
G1 X17.2832 Y6.7995
G1 X17.1732 Y6.7988
G1 X17.1405 Y6.799
G1 X17.0196 Y6.7993
G1 X16.8988 Y6.8016
G1 X16.778 Y6.8059
G1 X16.6977 Y6.8099
G1 X16.5532 Y6.8179
G1 X16.4088 Y6.8278
G1 X16.2837 Y6.838
G1 X16.1095 Y6.8549
G1 X15.9355 Y6.8739
G1 X15.7617 Y6.8948
G1 X15.5881 Y6.9177
G1 X15.4148 Y6.9425
G1 X15.2418 Y6.9694
G1 X15.0692 Y6.9982
G1 X14.8969 Y7.029
G1 X14.7445 Y7.0579
G1 X14.5283 Y7.1009
G1 X14.3125 Y7.1459
G1 X14.0971 Y7.1928
G1 X13.8822 Y7.2417
G1 X13.6677 Y7.2925
G1 X13.6057 Y7.3076
G1 X13.4437 Y7.3476
G1 X13.3936 Y7.3604
G1 X13.1421 Y7.4256
G1 X12.8911 Y7.4928
G1 X12.6406 Y7.5619
G1 X12.6019 Y7.5728
G1 X12.3064 Y7.6576
G1 X12.0322 Y7.7387
G1 X11.7585 Y7.8218
G1 X11.4854 Y7.9069
G1 X11.2129 Y7.9938
G1 X10.941 Y8.0826
G1 X10.6697 Y8.1733
G1 X10.3991 Y8.2659
G1 X10.2581 Y8.315
G0 Z3.0
M5
M30
